Adwaita++-Light/panel/22/slack-indicator-unread.svg

<svg height="22" width="22" xmlns="http://www.w3.org/2000/svg">
  <circle cx="16" cy="6" fill="#4285f4" r="2"/>
  <path d="m8.5 4c-.825582 0-1.5.674419-1.5 1.5 0 .8255815.674418 1.5 1.5 1.5h1.5v-1.5c0-.825581-.674419-1.5-1.5-1.5zm4.001953 0c-.825581 0-1.5.6732269-1.5 1.4980469v4.0039062c0 .8248199.674419 1.4980469 1.5 1.4980469.825583 0 1.5-.673227 1.5-1.4980469v-1.2675781a3 3 0 0 1 -1.001953-2.234375 3 3 0 0 1 .482422-1.6269531c-.263748-.2295595-.604878-.3730469-.980469-.3730469zm-8.0039061 4c-.82482 0-1.4980469.6744185-1.4980469 1.5 0 .825581.6732269 1.5 1.4980469 1.5h4.0039062c.82482 0 1.4980469-.674419 1.4980469-1.5 0-.8255815-.6732269-1.5-1.4980469-1.5zm13.1289061.5195312a3 3 0 0 1 -1.626953.4804688 3 3 0 0 1 -.855469-.1269531c-.089114.1915304-.142578.4025927-.142578.6269531v1.5h1.5c.82558 0 1.5-.674419 1.5-1.5 0-.3758742-.144789-.716643-.375-.9804688zm-13.126953 3.4804688c-.825581 0-1.5.674419-1.5 1.5 0 .825582.674419 1.5 1.5 1.5.825582 0 1.5-.674418 1.5-1.5v-1.5zm4 0c-.825581 0-1.5.673227-1.5 1.498047v4.003906c0 .82482.674419 1.498047 1.5 1.498047s1.5-.673227 1.5-1.498047v-4.003906c0-.82482-.674419-1.498047-1.5-1.498047zm3.998047 0c-.824821 0-1.498047.674419-1.498047 1.5s.673227 1.5 1.498047 1.5h4.003906c.824819 0 1.498047-.674419 1.498047-1.5s-.673228-1.5-1.498047-1.5zm-1.498047 4v1.5c0 .825581.674419 1.5 1.5 1.5.825582 0 1.5-.674419 1.5-1.5s-.674418-1.5-1.5-1.5z" fill="#444"/>
</svg>

<svg xmlns="http://www.w3.org/2000/svg" width="22" height="22" version="1.1">
 <defs>
  <style id="current-color-scheme" type="text/css">
   .ColorScheme-Text { color:#444444; } .ColorScheme-Highlight { color:#4285f4; }
  </style>
 </defs>
 <circle style="fill:currentColor" class="ColorScheme-Highlight" cx="16" cy="6" r="2"/>
 <path style="fill:currentColor" class="ColorScheme-Text" d="M 8.5 4 C 7.674418 4 7 4.674419 7 5.5 C 7 6.3255815 7.674418 7 8.5 7 L 10 7 L 10 5.5 C 10 4.674419 9.325581 4 8.5 4 z M 12.501953 4 C 11.676372 4 11.001953 4.6732269 11.001953 5.4980469 L 11.001953 9.5019531 C 11.001953 10.326773 11.676372 11 12.501953 11 C 13.327536 11 14.001953 10.326773 14.001953 9.5019531 L 14.001953 8.234375 A 3 3 0 0 1 13 6 A 3 3 0 0 1 13.482422 4.3730469 C 13.218674 4.1434874 12.877544 4 12.501953 4 z M 4.4980469 8 C 3.6732269 8 3 8.6744185 3 9.5 C 3 10.325581 3.6732269 11 4.4980469 11 L 8.5019531 11 C 9.3267731 11 10 10.325581 10 9.5 C 10 8.6744185 9.3267731 8 8.5019531 8 L 4.4980469 8 z M 17.626953 8.5195312 A 3 3 0 0 1 16 9 A 3 3 0 0 1 15.144531 8.8730469 C 15.055417 9.0645773 15.001953 9.2756396 15.001953 9.5 L 15.001953 11 L 16.501953 11 C 17.327533 11 18.001953 10.325581 18.001953 9.5 C 18.001953 9.1241258 17.857164 8.783357 17.626953 8.5195312 z M 4.5 12 C 3.674419 12 3 12.674419 3 13.5 C 3 14.325582 3.674419 15 4.5 15 C 5.325582 15 6 14.325582 6 13.5 L 6 12 L 4.5 12 z M 8.5 12 C 7.674419 12 7 12.673227 7 13.498047 L 7 17.501953 C 7 18.326773 7.674419 19 8.5 19 C 9.325581 19 10 18.326773 10 17.501953 L 10 13.498047 C 10 12.673227 9.325581 12 8.5 12 z M 12.498047 12 C 11.673226 12 11 12.674419 11 13.5 C 11 14.325581 11.673227 15 12.498047 15 L 16.501953 15 C 17.326772 15 18 14.325581 18 13.5 C 18 12.674419 17.326772 12 16.501953 12 L 12.498047 12 z M 11 16 L 11 17.5 C 11 18.325581 11.674419 19 12.5 19 C 13.325582 19 14 18.325581 14 17.5 C 14 16.674419 13.325582 16 12.5 16 L 11 16 z"/>
</svg>
